X:5
T:No.5 The Turnpike
C:reel
M:4/4
L:1/8
K:A
ABcA BBAF|E3 F ABce|a2 ae ffec|
dBcA BAFG|ABcA BBAF|E3 F ABce|
a2 ae ffec|[1dBGB A2 EE:|[2dBGB A2 AF||
EEGG BBGG|AAcc eecc|BB^dd ffdd|
eegg bbgg|a2 ae ffec|defg a2 ga|
bgaf gecc|[1dBGB A2 AF:|[2dBGB A4||
